RestoDelMundo/Polonia/Otras Categorias/Gts Wisla2.svg

<svg xmlns="http://www.w3.org/2000/svg" viewBox="0 0 612 792"><path fill="#fff" d="M546.624 462.184c0 27.576-9.288 54.288-25.056 76.752h-.072c-7.848 11.304-17.064 21.384-27.072 30.6s-20.736 17.496-31.752 25.056c-10.8 7.344-22.032 13.824-33.48 19.728s-22.968 11.376-34.416 16.776c-14.832 7.128-29.16 14.328-43.128 21.816a748 748 0 0 0-45.072 26.64 748 748 0 0 0-45.072-26.64c-13.968-7.488-28.296-14.688-43.128-21.816-11.448-5.4-22.968-10.872-34.416-16.776s-22.68-12.384-33.48-19.728c-11.016-7.56-21.744-15.84-31.752-25.056s-19.224-19.296-27.072-30.6h-.072c-15.768-22.464-25.056-49.176-25.056-76.752v-349.56h480.096z"/><path fill="#034ea2" d="M540.072 462.184c0 26.424-8.856 51.48-23.904 73.008-15.264 21.672-35.568 39.024-57.24 54-20.952 14.328-44.136 25.128-66.96 36-29.664 14.184-57.6 28.872-85.392 46.512-27.792-17.64-55.728-32.328-85.392-46.512-22.824-10.872-46.008-21.672-66.96-36-21.672-14.976-41.976-32.328-57.24-54-15.048-21.528-23.904-46.584-23.904-73.008V119.248h466.992z"/><path fill="#fff" d="M518.328 462.184V140.92H94.824v321.264c0 35.064 18.36 63.864 43.056 86.616 17.64 16.272 37.728 29.448 59.04 40.464 36.72 19.08 74.016 35.352 109.656 56.952 35.64-21.6 72.936-37.872 109.656-56.952 21.312-11.016 41.4-24.192 59.04-40.464 24.696-22.752 43.056-51.552 43.056-86.616"/><path fill="#ed1c24" d="M510.336 239.56v-90.576H419.76L103.032 468.808c2.232 29.448 18.72 54.288 40.248 74.088 11.736 10.872 24.768 20.304 38.448 28.656z"/><path fill="#034ea2" d="M419.76 148.984H102.816v313.2c0 2.232.072 4.464.216 6.624zM510.336 462.184V239.56L181.728 571.552c6.192 3.816 12.456 7.272 18.864 10.584 35.28 18.36 71.712 34.488 105.984 54.792 34.272-20.304 70.704-36.432 105.984-54.792 20.592-10.656 40.248-23.544 57.312-39.24 23.112-21.24 40.464-48.384 40.464-80.712"/><path d="m306.576 168.28 41.544 137.016h132.552L384.984 388.6l46.584 138.312-124.992-81.504-124.992 81.504L228.168 388.6l-95.688-83.304h132.552Z"/><path fill="#fff" d="M305.064 184.048 267.84 306.592l37.224 49.536Z"/><path fill="#d1d3d4" d="m231.264 389.176-42.336 125.568 113.112-150.48Z"/><path fill="#fff" d="m144.36 311.56 85.824 74.664 70.992-24.984Z"/><path fill="#d1d3d4" d="M265.392 308.392H144.72l158.328 50.256ZM421.92 516.904 308.088 442.24v-76.824ZM308.088 184.048l37.224 122.544-37.224 49.536Z"/><path fill="#fff" d="m381.888 389.176 42.336 125.568-113.112-150.48Z"/><path fill="#d1d3d4" d="m468.792 311.56-85.824 74.664-70.992-24.984Z"/><path fill="#fff" d="M347.76 308.392h120.672l-158.328 50.256ZM191.232 516.904l113.832-74.664v-76.824Z"/></svg>

<svg enable-background="new 0 0 612 792" viewBox="0 0 612 792" xmlns="http://www.w3.org/2000/svg"><path d="M 546.624 462.184 c 0 27.576 -9.288 54.288 -25.056 76.752 h -.072 c -7.848 11.304 -17.064 21.384 -27.072 30.6 c -10.008 9.216 -20.736 17.496 -31.752 25.056 l 0 0 c -10.8 7.344 -22.032 13.824 -33.48 19.728 c -11.448 5.904 -22.968 11.376 -34.416 16.776 l 0 0 c -14.832 7.128 -29.16 14.328 -43.128 21.816 c -15.336 8.352 -30.312 17.208 -45.072 26.64 c -14.76 -9.432 -29.736 -18.288 -45.072 -26.64 c -13.968 -7.488 -28.296 -14.688 -43.128 -21.816 l 0 0 c -11.448 -5.4 -22.968 -10.872 -34.416 -16.776 c -11.448 -5.904 -22.68 -12.384 -33.48 -19.728 l 0 0 c -11.016 -7.56 -21.744 -15.84 -31.752 -25.056 c -10.008 -9.216 -19.224 -19.296 -27.072 -30.6 h -.072 c -15.768 -22.464 -25.056 -49.176 -25.056 -76.752 v -349.56 h 480.096 V 462.184 z" fill="#fff"/><path d="M 540.072 462.184 c 0 26.424 -8.856 51.48 -23.904 73.008 c -15.264 21.672 -35.568 39.024 -57.24 54 c -20.952 14.328 -44.136 25.128 -66.96 36 c -29.664 14.184 -57.6 28.872 -85.392 46.512 c -27.792 -17.64 -55.728 -32.328 -85.392 -46.512 c -22.824 -10.872 -46.008 -21.672 -66.96 -36 c -21.672 -14.976 -41.976 -32.328 -57.24 -54 c -15.048 -21.528 -23.904 -46.584 -23.904 -73.008 c 0 -114.264 0 -228.6 0 -342.936 c 155.736 0 311.256 0 466.992 0 C 540.072 233.584 540.072 347.92 540.072 462.184 z" fill="#034ea2"/><path d="M 518.328 462.184 V 140.92 H 94.824 v 321.264 c 0 35.064 18.36 63.864 43.056 86.616 c 17.64 16.272 37.728 29.448 59.04 40.464 c 36.72 19.08 74.016 35.352 109.656 56.952 c 35.64 -21.6 72.936 -37.872 109.656 -56.952 c 21.312 -11.016 41.4 -24.192 59.04 -40.464 C 499.968 526.048 518.328 497.248 518.328 462.184 z" fill="#fff"/><path d="M 510.336 239.56 v -90.576 H 419.76 L 103.032 468.808 c 2.232 29.448 18.72 54.288 40.248 74.088 c 11.736 10.872 24.768 20.304 38.448 28.656 L 510.336 239.56 z" fill="#ed1c24"/><path d="M 419.76 148.984 H 102.816 v 313.2 c 0 2.232 .072 4.464 .216 6.624 L 419.76 148.984 z" fill="#034ea2"/><path d="M 510.336 462.184 V 239.56 L 181.728 571.552 c 6.192 3.816 12.456 7.272 18.864 10.584 c 35.28 18.36 71.712 34.488 105.984 54.792 c 34.272 -20.304 70.704 -36.432 105.984 -54.792 c 20.592 -10.656 40.248 -23.544 57.312 -39.24 C 492.984 521.656 510.336 494.512 510.336 462.184 z" fill="#034ea2"/><path d="M 306.576 168.28 L 348.12 305.296 L 480.672 305.296 L 384.984 388.6 L 431.568 526.912 L 306.576 445.408 L 181.584 526.912 L 228.168 388.6 L 132.48 305.296 L 265.032 305.296 Z"/><path d="M 305.064 184.048 L 267.84 306.592 L 305.064 356.128 Z" fill="#fff"/><path d="M 231.264 389.176 L 188.928 514.744 L 302.04 364.264 Z" fill="#d1d3d4"/><path d="M 144.36 311.56 L 230.184 386.224 L 301.176 361.24 Z" fill="#fff"/><path d="M 265.392 308.392 L 144.72 308.392 L 303.048 358.648 Z" fill="#d1d3d4"/><path d="M 421.92 516.904 L 308.088 442.24 L 308.088 365.416 Z" fill="#d1d3d4"/><path d="M 308.088 184.048 L 345.312 306.592 L 308.088 356.128 Z" fill="#d1d3d4"/><path d="M 381.888 389.176 L 424.224 514.744 L 311.112 364.264 Z" fill="#fff"/><path d="M 468.792 311.56 L 382.968 386.224 L 311.976 361.24 Z" fill="#d1d3d4"/><path d="M 347.76 308.392 L 468.432 308.392 L 310.104 358.648 Z" fill="#fff"/><path d="M 191.232 516.904 L 305.064 442.24 L 305.064 365.416 Z" fill="#fff"/></svg>
